Numix/16/status/indicator-keyboard-Kk-1.svg

<?xml version="1.0" encoding="UTF-8" standalone="no"?>
<svg
   xmlns:dc="http://purl.org/dc/elements/1.1/"
   xmlns:cc="http://creativecommons.org/ns#"
   xmlns:rdf="http://www.w3.org/1999/02/22-rdf-syntax-ns#"
   xmlns:svg="http://www.w3.org/2000/svg"
   xmlns="http://www.w3.org/2000/svg"
   xmlns:sodipodi="http://sodipodi.sourceforge.net/DTD/sodipodi-0.dtd"
   xmlns:inkscape="http://www.inkscape.org/namespaces/inkscape"
   viewBox="0 0 16 16"
   id="svg2"
   version="1.1"
   inkscape:version="0.91 r13725"
   sodipodi:docname="indicator-keyboard-Kk-1.svg">
  <metadata
     id="metadata14">
    <rdf:RDF>
      <cc:Work
         rdf:about="">
        <dc:format>image/svg+xml</dc:format>
        <dc:type
           rdf:resource="http://purl.org/dc/dcmitype/StillImage" />
      </cc:Work>
    </rdf:RDF>
  </metadata>
  <defs
     id="defs12" />
  <sodipodi:namedview
     pagecolor="#ffffff"
     bordercolor="#666666"
     borderopacity="1"
     objecttolerance="10"
     gridtolerance="10"
     guidetolerance="10"
     inkscape:pageopacity="0"
     inkscape:pageshadow="2"
     inkscape:window-width="640"
     inkscape:window-height="480"
     id="namedview10"
     showgrid="false"
     inkscape:zoom="14.75"
     inkscape:cx="8"
     inkscape:cy="8"
     inkscape:window-x="65"
     inkscape:window-y="24"
     inkscape:window-maximized="0"
     inkscape:current-layer="svg2" />
  <path
     style="fill:#ececec;fill-opacity:1"
     d="M 1.5996094 0 C 0.71320937 2.9605947e-16 0 0.71320937 0 1.5996094 L 0 14.400391 C 2.9605947e-16 15.286791 0.71320937 16 1.5996094 16 L 14.400391 16 C 15.286791 16 16 15.286791 16 14.400391 L 16 1.5996094 C 16 0.71320937 15.286791 0 14.400391 0 L 1.5996094 0 z M 8.3964844 4.1113281 L 8.3964844 8.5390625 C 8.5464844 8.3950625 8.7143906 8.2309219 8.9003906 8.0449219 C 9.0863906 7.8589219 9.2729844 7.6705156 9.4589844 7.4785156 C 9.6509844 7.2865156 9.8300469 7.0999219 9.9980469 6.9199219 C 10.166047 6.7399219 10.309688 6.5813594 10.429688 6.4433594 L 11.132812 6.4433594 C 10.994812 6.5873594 10.838063 6.7496875 10.664062 6.9296875 C 10.490062 7.1096875 10.307234 7.2980937 10.115234 7.4960938 C 9.9292345 7.6880937 9.7426406 7.8765 9.5566406 8.0625 L 9.0527344 8.5664062 C 9.2387344 8.6924063 9.4364844 8.8547344 9.6464844 9.0527344 C 9.8624844 9.2507344 10.073344 9.4671719 10.277344 9.7011719 C 10.487344 9.9291721 10.681328 10.166109 10.861328 10.412109 C 11.047328 10.652109 11.204078 10.879703 11.330078 11.095703 L 10.636719 11.095703 C 10.492719 10.855703 10.328578 10.622531 10.142578 10.394531 C 9.9625783 10.160531 9.7704063 9.9403283 9.5664062 9.7363281 C 9.3684062 9.5323281 9.1668906 9.3476875 8.9628906 9.1796875 C 8.7648906 9.0116875 8.5764844 8.8698594 8.3964844 8.7558594 L 8.3964844 11.095703 L 7.8105469 11.095703 L 7.8105469 4.2207031 L 8.3964844 4.1113281 z M 2.4511719 4.859375 L 3.0625 4.859375 L 3.0625 7.765625 C 3.2905 7.561625 3.5423594 7.3284531 3.8183594 7.0644531 C 4.1003594 6.7944531 4.3764844 6.5239062 4.6464844 6.2539062 C 4.9224844 5.9839063 5.1799219 5.7264687 5.4199219 5.4804688 C 5.6599219 5.2344688 5.8520938 5.027375 5.9960938 4.859375 L 6.734375 4.859375 C 6.560375 5.045375 6.3514687 5.2673906 6.1054688 5.5253906 C 5.8594687 5.7773906 5.5982656 6.0385937 5.3222656 6.3085938 C 5.0462656 6.5785938 4.7701406 6.845375 4.4941406 7.109375 C 4.2241406 7.367375 3.9796719 7.5949688 3.7636719 7.7929688 C 3.9376719 7.9009687 4.1242656 8.0352656 4.3222656 8.1972656 C 4.5262656 8.3532656 4.7315469 8.5287031 4.9355469 8.7207031 C 5.1455469 8.9067031 5.348875 9.1044531 5.546875 9.3144531 C 5.750875 9.5184531 5.9392812 9.7255469 6.1132812 9.9355469 C 6.2932813 10.145547 6.4518437 10.348875 6.5898438 10.546875 C 6.7338438 10.744875 6.8514063 10.927703 6.9414062 11.095703 L 6.2578125 11.095703 C 6.0538125 10.783703 5.8224531 10.475922 5.5644531 10.169922 C 5.3124531 9.8639217 5.0456719 9.5746875 4.7636719 9.3046875 C 4.4816719 9.0346875 4.1943906 8.7884063 3.9003906 8.5664062 C 3.6123906 8.3444063 3.3325 8.1597656 3.0625 8.0097656 L 3.0625 11.095703 L 2.4511719 11.095703 L 2.4511719 4.859375 z M 13.28125 8.8417969 L 13.548828 8.8417969 L 13.548828 12.896484 L 13.169922 12.896484 L 13.169922 9.421875 C 13.127022 9.468675 13.0702 9.5157063 13 9.5664062 C 12.9337 9.6171062 12.857284 9.66805 12.771484 9.71875 C 12.685684 9.76555 12.595553 9.812575 12.501953 9.859375 C 12.408353 9.902275 12.314303 9.9375438 12.220703 9.9648438 L 12.109375 9.671875 C 12.343375 9.5899751 12.553028 9.4880812 12.736328 9.3632812 C 12.919628 9.2345812 13.10185 9.0601969 13.28125 8.8417969 z "
     id="path4" />
</svg>

<svg xmlns="http://www.w3.org/2000/svg" viewBox="0 0 16 16">
 <path d="m 1.6 0 c -0.886 0 -1.6 0.713 -1.6 1.6 l 0 12.801 c 0 0.886 0.713 1.6 1.6 1.6 l 12.801 0 c 0.886 0 1.6 -0.713 1.6 -1.6 l 0 -12.801 c 0 -0.886 -0.713 -1.6 -1.6 -1.6 l -12.801 0 z m 6.797 4.111 l 0 4.428 c 0.15 -0.144 0.318 -0.308 0.504 -0.494 c 0.186 -0.186 0.373 -0.374 0.559 -0.566 c 0.192 -0.192 0.371 -0.379 0.539 -0.559 c 0.168 -0.18 0.312 -0.339 0.432 -0.477 l 0.703 0 c -0.138 0.144 -0.295 0.306 -0.469 0.486 c -0.174 0.18 -0.357 0.368 -0.549 0.566 c -0.186 0.192 -0.373 0.38 -0.559 0.566 l -0.504 0.504 c 0.186 0.126 0.384 0.288 0.594 0.486 c 0.216 0.198 0.427 0.414 0.631 0.648 c 0.21 0.228 0.404 0.465 0.584 0.711 c 0.186 0.24 0.343 0.468 0.469 0.684 l -0.693 0 c -0.144 -0.24 -0.308 -0.473 -0.494 -0.701 c -0.18 -0.234 -0.372 -0.454 -0.576 -0.658 c -0.198 -0.204 -0.4 -0.389 -0.604 -0.557 c -0.198 -0.168 -0.386 -0.31 -0.566 -0.424 l 0 2.34 l -0.586 0 l 0 -6.875 l 0.586 -0.109 z m -5.945 0.748 l 0.611 0 l 0 2.906 c 0.228 -0.204 0.48 -0.437 0.756 -0.701 c 0.282 -0.27 0.558 -0.541 0.828 -0.811 c 0.276 -0.27 0.533 -0.527 0.773 -0.773 c 0.24 -0.246 0.432 -0.453 0.576 -0.621 l 0.738 0 c -0.174 0.186 -0.383 0.408 -0.629 0.666 c -0.246 0.252 -0.507 0.513 -0.783 0.783 c -0.276 0.27 -0.552 0.537 -0.828 0.801 c -0.27 0.258 -0.514 0.486 -0.73 0.684 c 0.174 0.108 0.361 0.242 0.559 0.404 c 0.204 0.156 0.409 0.331 0.613 0.523 c 0.21 0.186 0.413 0.384 0.611 0.594 c 0.204 0.204 0.392 0.411 0.566 0.621 c 0.18 0.21 0.339 0.413 0.477 0.611 c 0.144 0.198 0.262 0.381 0.352 0.549 l -0.684 0 c -0.204 -0.312 -0.435 -0.62 -0.693 -0.926 c -0.252 -0.306 -0.519 -0.595 -0.801 -0.865 c -0.282 -0.27 -0.569 -0.516 -0.863 -0.738 c -0.288 -0.222 -0.568 -0.407 -0.838 -0.557 l 0 3.086 l -0.611 0 l 0 -6.236 z m 10.83 3.982 l 0.268 0 l 0 4.055 l -0.379 0 l 0 -3.475 c -0.043 0.047 -0.1 0.094 -0.17 0.145 c -0.066 0.051 -0.143 0.102 -0.229 0.152 c -0.086 0.047 -0.176 0.094 -0.27 0.141 c -0.094 0.043 -0.188 0.078 -0.281 0.105 l -0.111 -0.293 c 0.234 -0.082 0.444 -0.184 0.627 -0.309 c 0.183 -0.129 0.366 -0.303 0.545 -0.521 z" style="fill:#ececec;fill-opacity:1"/>
</svg>
